icon-svg/nanoleaf-lines.svg

<svg xmlns="http://www.w3.org/2000/svg" viewBox="0 0 24 24"><path fill="#44739e" d="m16.836 18.117.033-.058-.003-.006 3.96-2.694-.204-.353-3.96 2.694-.024-.042-.009-.014h-.479l-.003.005-3.576-2.434-.203.353 3.575 2.434-.024.042-.009.015.039.068.024.042-3.605 2.454.204.353 3.675-2.501h.382l.003-.005 3.936 2.679.204-.353Zm-5.456-3.66-3.491-2.376.024-.042.01-.015-.002-.003-.024-.041 3.477-2.173-.203-.353-3.477 2.173-.011-.019h-.48l-.002.005-3.786-2.576-.204.353 3.786 2.576-.024.042-.009.016.001.002.024.042-3.802 2.376.203.352 3.802-2.376.011.019h.48l.002-.005 3.491 2.376Zm.843-11.145.351-.609-.351-.609h-.703l-.351.609.351.609Zm8.723 17.376-.352.609.352.609h.703l.351-.609-.351-.609Zm.703-5.315.351-.609-.351-.609h-.703l-.352.609.352.609ZM11.52 20.564l-.351.609.351.609h.703l.351-.609-.351-.609Zm1.054-5.548-.351-.608h-.703l-.351.608.351.609h.703Zm-10.223-.608L2 15.016l.351.609h.703l.352-.609-.352-.608Zm.703-4.94.352-.608-.352-.609h-.703L2 8.86l.351.608Zm13.528-2.766h.703l.351-.608-.351-.609h-.703l-.352.609Zm-4.359 3.163.351-.609-.351-.608h-.703l-.351.608.351.609Zm4.023-3.993.204-.353-3.869-2.633-.204.353Zm-3.674 3.187 3.864-2.415-.203-.352-3.865 2.414Zm-.904-5.651h.407v5.131h-.407Zm0 6.554h.407v4.349h-.407Zm9.426 5.507h.407v5.122h-.407Zm-9.426.253h.407v4.746h-.407ZM2.5 9.565h.407v4.746H2.5Z"/></svg>

<?xml version="1.0" encoding="UTF-8"?>
<svg width="24px" fill="#44739e" height="24px" viewBox="0 0 24 24" version="1.1" xmlns="http://www.w3.org/2000/svg" xmlns:xlink="http://www.w3.org/1999/xlink">
            <path d="m 16.836,18.117 0.033,-0.058 -0.003,-0.006 3.96,-2.694 -0.204,-0.353 -3.96,2.694 -0.024,-0.042 -0.009,-0.014 H 16.227 16.15 l -0.003,0.005 -3.576,-2.434 -0.203,0.353 3.575,2.434 -0.024,0.042 -0.009,0.015 0.039,0.068 0.024,0.042 -3.605,2.454 0.204,0.353 3.675,-2.501 h 0.086 0.22 0.076 l 0.003,-0.005 3.936,2.679 0.204,-0.353 z M 11.38,14.457 7.889,12.081 7.913,12.039 7.923,12.024 7.921,12.021 7.897,11.98 11.374,9.807 11.171,9.454 7.694,11.627 7.683,11.608 H 7.633 7.28 7.203 L 7.201,11.613 3.415,9.037 3.211,9.39 l 3.786,2.576 -0.024,0.042 -0.009,0.016 10e-4,0.002 0.024,0.042 -3.802,2.376 0.203,0.352 3.802,-2.376 0.011,0.019 h 0.05 0.353 0.077 l 0.002,-0.005 3.491,2.376 z M 12.223,3.312 12.574,2.703 12.223,2.094 H 11.52 l -0.351,0.609 0.351,0.609 z m 8.723,17.376 -0.352,0.609 0.352,0.609 h 0.703 L 22,21.297 21.649,20.688 Z M 21.649,15.373 22,14.764 21.649,14.155 h -0.703 l -0.352,0.609 0.352,0.609 z m -10.129,5.191 -0.351,0.609 0.351,0.609 h 0.703 l 0.351,-0.609 -0.351,-0.609 z m 1.054,-5.548 -0.351,-0.608 H 11.52 l -0.351,0.608 0.351,0.609 h 0.703 z M 2.351,14.408 2,15.016 2.351,15.625 H 3.054 L 3.406,15.016 3.054,14.408 Z M 3.054,9.468 3.406,8.86 3.054,8.251 H 2.351 L 2,8.86 2.351,9.468 Z M 16.582,6.702 h 0.703 L 17.636,6.094 17.285,5.485 H 16.582 L 16.23,6.094 Z M 12.223,9.865 12.574,9.256 12.223,8.648 H 11.52 L 11.169,9.256 11.52,9.865 Z M 16.246,5.872 16.45,5.519 12.581,2.886 12.377,3.239 Z M 12.572,9.059 16.436,6.644 16.233,6.292 12.368,8.706 Z M 11.668,3.408 h 0.407 v 5.131 h -0.407 z m 0,6.5539999 h 0.407 V 14.311 H 11.668 Z M 21.094,15.469 h 0.407 v 5.122 h -0.407 z m -9.426,0.253 h 0.407 v 4.746 H 11.668 Z M 2.5,9.5649996 H 2.907 V 14.310999 H 2.5 Z"/>

</svg>
